X: 1
T: Hojna    [A]
C: trad Moldvai Hungarian
N: (N.E> Romania)
S: PDF from Yaron Shragai
R: reel
Z: 2018 John Chambers <jc:trillian.mit.edu>
P: A1 B A2 B A3 B ...
M: C|
L: 1/8
K: A
"A1"|:\
"D"FEFG A2GF | "A"E2 c4 d2 | eeec "E7"dddB |1,3 "A"A2 c4 F2 :|2,4 "A"AAAE A2z2 :|
"B"|:\
"A"ABc2 B2A2 | c4 c4 | ABc2 B2A2 | "D"d4 d4 |\
"A"ABc2 B2A2 | c4 c2AA | ABcA "E7"B3A | "A"AAAE A2z2 :|
"A2"|:\
"A"e2e2 d2d2 | c2A2 "E7"B4 | "A"c2A2 A2c2 | "E7"e4 e4 |\
"A"e2f2 "A7"=g2g2 | "D"f2c2 d4 | "A"c2A2 "E7"B2G2 | "A"A4 A4 :|
"A3"|:\
"A"e2fg "D"a2gf | "A"e2 c4 e2 | efed "E7"cdcB |1,3 "A"cBcd e4 :|2,4 "A"AAAE A2z2 :|

%%sep 1 1 500
%%sep 1 1 500

